!!!SOCIAL_FUNCTION:	arapaho song of the world war
!!!PDT:	1936
!!!OTL: No_22_Arapaho_Song_of_the_World_War_(b).krn
!!!REG: Oklahoma and Montana
!!!LANG: Tone
!!!LING_GROUP: Algonquin
**kern	**kern
*staff2	*staff1
=1-	=1-
*clefF4	*clefF4
*k[b-e-a-]	*k[b-e-a-]
*M3/4	*M3/4
4GG/	2r
4GG/	.
4GG/	(16B-\LL
.	16G\JJ)
.	8r
=2!|:	=2!|:
4GG/	8.B-\L
.	16B-\Jk
4GG/	4B-\
4GG/	8B-\
.	8r
=3	=3
*M2/4	*M2/4
2r	16e-\LK
.	(8e-\
.	16c\Jk)
.	16B-\LK
.	8.B-\J
=4	=4
*M3/8	*M3/8
4.r	4B-\
.	16G\
.	16r
=5	=5
*M3/4	*M3/4
2.r	12B-\L
.	12B-\
.	12B-\J
.	4B-\
.	16B-\LK
.	8.B-\J
=6	=6
*M2/4	*M2/4
2r	16F\LK
.	8.F\J
.	8F\L
.	8G\J
=7	=7
*M3/4	*M3/4
2.r	8F\L
.	8E-\J
.	8BB-/
.	8r
.	4E-\
=8	=8
*M2/4	*M2/4
2r	16BB-/LK
.	8.BB-/J
.	8BB-/L
.	8BB-/J
=9	=9
2r	4BB-/
.	8r
.	(16B-\LL
.	16G\JJ)
=10:|!	=10:|!
2r	8BB-/L
.	8BB-/J
.	8BB-/
.	8r
==	==
*-	*-
